X:581
%%etbk:tnset id:2,pos:3,rep:3x,ant:
%%etbk:wsite http://thesession.org/tunes/229
%%etbk:wsite http://www.trad.katesplacedoolin.com/tunes/dowdsfavourite.html
%%etbk:video src:ytube,cde:Rw0YYdll_rs,desc:second tune
%%etbk:color #ffffcc
%%etbk:pldat 2016-07-26T16:57,2016-07-25T18:20,2016-07-19T20:47,2016-07-15T14:17,2016-03-14T18:06,2015-11-25T15:59,2015-08-14T15:58,2015-05-31T12:02,2015-04-21T17:12,2015-03-23T18:18,2015-03-06T17:12,2015-01-18T10:55,2015-01-17T14:35,2014-12-27T14:56,2014-12-20T14:37,2014-12-02T17:30,2014-11-26T16:50,2014-11-19T17:11,2014-11-17T18:47,2014-11-15T15:32,2014-09-11T18:31,2014-09-09T18:21,2014-09-08T17:56,2014-07-05T14:31,2014-05-28T16:56,2014-05-23T16:42,2014-05-19T18:03,2014-05-17T15:14,2014-05-14T16:51,2014-05-13T18:21,2014-05-12T18:00,2014-05-11T12:42,2014-05-08T18:33,2014-05-07T15:36,2014-05-06T15:37,2014-05-04T12:04
T:Dowd's Favourite
R:Reel
Z: Piano Box Version by Martin Fleischmann
H: Created 2014-05-04 /  Last Modified 2016-07-19
M: 4/4
L: 1/8
K: Gdor
"gm"!1!D!3!GGA !5!BAGF|"dm"!1!D!2!~F3 CFAF|"gm"!1!D!3!GG!4!A !2!BABd|"dm"!3!c!2!A!5!f!2!c "gm"!2!A!1!GG!2!F|
"gm"DGGA BABF|"dm"D~F3 !5!d!2!F!5!c!2!F|"gm"!1!D!3!GG!4!A !2!BABd|"dm"!3!cAfc "gm"!2!A!1!GG!2!A||
"Bb"!3!B2dB !1!FBdB| !1!D!2!F!3!B!5!d "F"!4!cAFA|"Bb"!3!B2!5!dB !5!fB!5!dB|"F"!4!cAFA "gm"BGGA|
"Bb"!3!BABd "F"!4!c=Bcd|"Bb"!3!BABd "F"!4!cAFA|"gm"!1!G (3!2!ABc !1!B!5!bag|"dm"!2!f!1!d!4!cA "gm"BGG2||
"gm"!5!g!1!~d3 !3!gbag|"dm"!2!f!1!~c3 !2!fgaf|"gm"g~d3 gbag|"dm"!2!f!1!d!4!c!2!A "gm"!3!B!1!G!2!B!3!d|
"gm"!5!g2!3!gf gbag|"dm"f2fg fdcA|"gm"GBAc Bbag|"dm"fdcA "gm"BGGF||
|"var"GA!3!B!4!c !3!d!5!gg!4!e|!5!fdcA BGGF|z8|z8|


